X:819
T:Reel 819
M:4/4
K:Dmaj
L:1/8
B3A BGFB|BABc dAFA|BABc dAFA|BABc dAFA|B2BA FGAB|BdBA F2Ad|BABc dcdB|ABde fdd2|a2ag f2de|fbba bafg|agaf gedc|dBAF FEE2|fbag fedB|ABde fddB|ABde fedc|dBAF FEE2|
